X: 9
T: The Fairy Dance
R: reel
M: 4/4
L: 1/8
K: Gmaj
G>A | B2 B>G B2 B>G | B2 B>G A>FD>G | B2 B>G c>BA>G | F>GA>B A2 G>A |
B2B>G B2 B>G | B2 B>G A>FD>G | B2 B>G c>BA>G | F>DE>F G2 :|
B>c | d2 d>B e2 e>B | c2 c>A d2 d>c | B2 B>G c>BA>G | F>GA>B A2 B>c |
d2 d>B e2 e>B | c2 c>A d2 d>c | B2 B>G c>BA>G | F>DE>F G2:|


Tune 424	Setting 424

